X: 26579
T: Mick Finn's
R: reel
M: 4/4
K: Dmajor
D2AD BDAD|D2AD BDAF|E2BE dEBE|BABc dBAF|
D2AD BDAD|D2AD BDAF|GFEF GABc|defd BAFE:|
d2fd Adfa|gefg edBc|d2fd Adfa|gefd e2(ABc)|
d2fd Adfa|gefg edBc|dBBA Bcde|fdec dBAF:|

